epam-assets/icon-sources/18/action-align-center.svg

<svg xmlns="http://www.w3.org/2000/svg" width="18" height="18" fill="currentColor" viewBox="0 0 18 18">
  <path fill-rule="evenodd" d="M14.25 12V9.75h3v-1.5h-3V6l-3 3 3 3ZM3.75 6v2.25h-3v1.5h3V12l3-3-3-3Zm4.5 9h1.5V3h-1.5v12Z" clip-rule="evenodd"/>
</svg>

<svg width="18" height="18" viewBox="0 0 18 18" fill="none" xmlns="http://www.w3.org/2000/svg">
<g id="18/action-align-center">
<path id="icon" fill-rule="evenodd" clip-rule="evenodd" d="M14.25 12V9.75H17.25V8.25H14.25V6L11.25 9L14.25 12ZM3.75 6V8.25H0.75V9.75H3.75V12L6.75 9L3.75 6ZM8.25 15H9.75V3H8.25V15Z" fill="#6C6F80"/>
</g>
</svg>
